sirius_gui/src/main/resources/icons/circular-icons-svg/c-document.svg

<?xml version="1.0" encoding="UTF-8" standalone="no"?>
<svg
   width="64px"
   height="64px"
   viewBox="0 0 64 64"
   version="1.1"
   id="svg19892"
   sodipodi:docname="c-document.svg"
   inkscape:version="1.2 (dc2aeda, 2022-05-15)"
   xmlns:inkscape="http://www.inkscape.org/namespaces/inkscape"
   xmlns:sodipodi="http://sodipodi.sourceforge.net/DTD/sodipodi-0.dtd"
   xmlns="http://www.w3.org/2000/svg"
   xmlns:svg="http://www.w3.org/2000/svg"
   xmlns:sketch="http://www.bohemiancoding.com/sketch/ns">
  <sodipodi:namedview
     id="namedview19894"
     pagecolor="#ffffff"
     bordercolor="#000000"
     borderopacity="0.25"
     inkscape:showpageshadow="2"
     inkscape:pageopacity="0.0"
     inkscape:pagecheckerboard="0"
     inkscape:deskcolor="#d1d1d1"
     showgrid="false"
     inkscape:zoom="3.6875"
     inkscape:cx="0.40677966"
     inkscape:cy="32"
     inkscape:window-width="1309"
     inkscape:window-height="430"
     inkscape:window-x="0"
     inkscape:window-y="39"
     inkscape:window-maximized="0"
     inkscape:current-layer="svg19892" />
  <!-- Generator: Sketch 3.4 (15575) - http://www.bohemiancoding.com/sketch -->
  <title
     id="title19881">c-document</title>
  <desc
     id="desc19883">Created with Sketch.</desc>
  <defs
     id="defs19885" />
  <path
     d="M 32,64 C 49.673112,64 64,49.673112 64,32 64,14.326888 49.673112,0 32,0 14.326888,0 0,14.326888 0,32 0,49.673112 14.326888,64 32,64 Z"
     id="Oval-1"
     fill="#1191bb"
     sketch:type="MSShapeGroup"
     style="fill-rule:evenodd;stroke:none;stroke-width:1;fill:#4da6bf;fill-opacity:1" />
  <path
     d="M 18,14 H 47 V 50 H 18 Z m 19,0 H 47 V 24 H 37 Z"
     id="Rectangle-50"
     fill="#ffffff"
     sketch:type="MSShapeGroup"
     style="fill-rule:evenodd;stroke:none;stroke-width:1" />
  <path
     d="M 39,15.5 45.5,22 H 39 Z"
     id="Rectangle-52"
     fill="#ffffff"
     sketch:type="MSShapeGroup"
     style="fill-rule:evenodd;stroke:none;stroke-width:1" />
</svg>

<?xml version="1.0" encoding="UTF-8"?>
<svg id="svg19892" width="64px" height="64px" version="1.1" viewBox="0 0 64 64" xmlns="http://www.w3.org/2000/svg">
 <!-- Generator: Sketch 3.4 (15575) - http://www.bohemiancoding.com/sketch -->
 <title id="title19881">c-document</title>
 <desc id="desc19883">Created with Sketch.</desc>
 <path id="Oval-1" d="m32 64c17.673 0 32-14.327 32-32s-14.327-32-32-32-32 14.327-32 32 14.327 32 32 32z" fill="#4da6bf" fill-rule="evenodd"/>
 <path id="Rectangle-50" d="m18 14h29v36h-29zm19 0h10v10h-10z" fill="#fff" fill-rule="evenodd"/>
 <path id="Rectangle-52" d="m39 15.5 6.5 6.5h-6.5z" fill="#fff" fill-rule="evenodd"/>
</svg>
